src/16/actions/kdenlive-select-images.svg

<svg xmlns="http://www.w3.org/2000/svg" width="16" height="16" viewBox="0 0 16 16">
 <defs>
  <style id="current-color-scheme" type="text/css">
   .ColorScheme-Text { color:#5d656b; } .ColorScheme-Highlight { color:#5294e2; }
  </style>
 </defs>
 <path style="fill:currentColor" class="ColorScheme-Text" d="M 2 2.0039062 C 1 2.0039062 1 3.0039062 1 3.0039062 L 1 7.0039062 L 3 7.0039062 L 3 4.0039062 L 6 4.0039062 L 6 2.0039062 L 2 2.0039062 z M 10 2.0039062 L 10 4.0039062 L 13 4.0039062 L 13 7.0039062 L 15 7.0039062 L 15 3.0039062 C 15 2.0039062 14 2.0039062 14 2.0039062 L 10 2.0039062 z M 6.9902344 5 L 6.9902344 6 L 8.9902344 6 L 8.9902344 5 L 6.9902344 5 z M 6.9902344 7 L 6.9902344 11 L 8.9902344 11 L 8.9902344 7 L 6.9902344 7 z M 1 9.0039062 L 1 13.003906 C 1 14.003906 2 14.003906 2 14.003906 L 6 14.003906 L 6 12.003906 L 3 12.003906 L 3 9.0039062 L 1 9.0039062 z M 13 9.0039062 L 13 12.003906 L 10 12.003906 L 10 14.003906 L 14 14.003906 C 14 14.003906 15 14.003906 15 13.003906 L 15 9.0039062 L 13 9.0039062 z"/>
</svg>

<svg xmlns="http://www.w3.org/2000/svg" width="16" height="16"><defs><style id="current-color-scheme" type="text/css"></style></defs><path d="M2 2.004c-1 0-1 1-1 1v4h2v-3h3v-2H2zm8 0v2h3v3h2v-4c0-1-1-1-1-1h-4zM6.99 5v1h2V5h-2zm0 2v4h2V7h-2zM1 9.004v4c0 1 1 1 1 1h4v-2H3v-3H1zm12 0v3h-3v2h4s1 0 1-1v-4h-2z" fill="currentColor" color="#5d656b"/></svg>
